!! Cantigas de Santa Maria, No. 34
!! Transcribed by Higinio Angle/s
!! From Higinio Angle/s, "La Mu/sica de las Cantigas de Santa Mari/a
!! del rey Alfonso el Sabio", Barcelona: Biblioteca Central, 1943
**kern	**text
*M3/4	*Galician
*k[]	*
=1	.
2f	Gran
4g	de-
=2	.
2a	-reit'
4b	e/
=3	.
(8cc	que
8b)	.
(4a	fill'
4g)	.
=4	.
(4a	o
4f),	.
(8a	de-
8g)	.
=5	.
(4e	-mo
4c)	.
2d	por
=6	.
*M4/4	*
(4e	es-
4f	.
4g)	.
4f	-car-
=7	.
*M3/4	*
2.e	-men-
=8	.
*M4/4	.
(4f	-to
4e	.
4f	.
4d),	.
=9	.
*M3/4	.
2f	quen
4g	con-
=10	.
2a	-tra
4b	San-
=11	.
(8cc	-ta
8b-)	.
(4a	Ma-
4g)	.
=12	.
2a	-ri-
4f,	-a
(8a	fi-
8g)	.
=13	.
(4e	-lla
4c)	.
2d	a-
=14	.
(8e	-tre-
8f	.
4g	.
4f_	.
4e	-ve-
=15	.
(2d	-men
4e	.
4c)	.
=16	.
2.d,	-to.
=17	.
2cc	Por-
4b	-en
=18	.
4a	di-
(8b	-rei
8cc	.
4dd)	.
=19	.
2cc	un
4b-	mi-
=20	.
2a	-ra-
4g,	-gre,
=21	.
(4f	que
4e)	.
4d	foi
=22	.
(4e	gran
4f)	.
4g	ver-
=23	.
2.e	-da-
=24	.
2.e,	-de,
=25	.
2cc	que
4b	fez
=26	.
4a	en
(8b	Cos-
8cc	.
4dd)	.
=27	.
2cc	-tan-
4b	-ti-
=28	.
2a	-no-
4g,	-ble,
=29	.
(4f	na
4e)	.
4d	ri-
=30	.
(4e	-ca
4d)	.
4c	ci-
=31	.
(2d	-da-
4e)	.
=32	.
2.d,	-de,
=33	.
2f	a
4g	Vir-
=34	.
2a	-gen
4b	Ma-
=35	.
(8cc	-dre
8b)	.
(4a	de
4g)	.
=36	.
(4a	De-
4f)	-us,
(8a	por
8g)	.
=37	.
(4e	dar
4c)	.
2d	en-
=38	.
(4e	-ten-
4f	.
4g)	.
4f	-di-
=39	.
2.e	-men-
=40	.
(4f	-to
4e	.
4f	.
4d),	.
=41	.
2f	que
4g	quen
=42	.
2a	con-
4b	tra
=43	.
(8cc	e-
8b)	.
(4a	-la
4g)	.
=44	.
(4a	vay,
4f)	.
(8a	pa-
8g)	.
=45	.
(4e	-lla
4c)	.
2d	e/
=46	.
(8e	con
8f	.
4g	.
4f)	.
4e	-tra
=47	.
(2d	ven-
4e	.
4c)	.
=48	.
2.d	-to.
==	==
*-	*-
